!!!OTL: HEUT SCHEIDEN WIR AUS EUREM KREISE
!!!ARE: Europa, Mitteleuropa, Deutschland
!!!SCT: E1366
!!!YEM: Copyright 1995, estate of Helmut Schaffrath.
**kern
*ICvox
*Ivox
*M6/8
*k[]
*C:
{8G
=1
8G
8E
8G
8c
8G
8E
=2
8F
8A
8G
8F
8E}
{8G
=3
8G
8c
8e
8A
8d
8c
=4
8B
8A
8B
8c
8r}
{8G
=5
4e
8d
4c
8B
=6
8d
8c
8A
8A
8G}
{8G
=7
8G
8c
8e
8A
8d
8c
=8
8B
8A
8B
4c}
{8G
=9
4e
8d
4c
8B
=10
8d
8c
8A
8A
8G}
{8G
=11
8G
8c
8e
8A
8d
8c
=12
8B
8A
8B
4c}
==
!!!AGN: Staende -, Soldaten -, Kriegs - Lied, Reservisten
!!!ONB: ESAC (Essen Associative Code) Database: ERK3
!!!AMT: compound duple
!!!AIN: vox
!!!EED: Helmut Schaffrath
!!!EEV: 1.0
*-
